SVG_Azure_Grouped/Security/Defender for Cloud Coverage.svg

<?xml version="1.0" encoding="UTF-8" standalone="no"?>
<!-- Generated by Microsoft Visio, SVG Export Defender for Cloud Coverage.svg Page-1 -->

<svg
   xmlns:dc="http://purl.org/dc/elements/1.1/"
   xmlns:cc="http://creativecommons.org/ns#"
   xmlns:rdf="http://www.w3.org/1999/02/22-rdf-syntax-ns#"
   xmlns:svg="http://www.w3.org/2000/svg"
   xmlns="http://www.w3.org/2000/svg"
   xmlns:sodipodi="http://sodipodi.sourceforge.net/DTD/sodipodi-0.dtd"
   xmlns:inkscape="http://www.inkscape.org/namespaces/inkscape"
   width="0.71131963in"
   height="0.70863318in"
   viewBox="0 0 51.215067 51.021661"
   xml:space="preserve"
   class="st6"
   version="1.1"
   id="svg59"
   sodipodi:docname="Defender for Cloud Coverage.svg"
   style="font-size:12px;overflow:visible;color-interpolation-filters:sRGB;fill:none;fill-rule:evenodd;stroke-linecap:square;stroke-miterlimit:3"
   inkscape:version="0.92.5 (2060ec1f9f, 2020-04-08)"><metadata
   id="metadata63"><rdf:RDF><cc:Work
       rdf:about=""><dc:format>image/svg+xml</dc:format><dc:type
         rdf:resource="http://purl.org/dc/dcmitype/StillImage" /></cc:Work></rdf:RDF></metadata><sodipodi:namedview
   pagecolor="#ffffff"
   bordercolor="#666666"
   borderopacity="1"
   objecttolerance="10"
   gridtolerance="10"
   guidetolerance="10"
   inkscape:pageopacity="0"
   inkscape:pageshadow="2"
   inkscape:window-width="640"
   inkscape:window-height="480"
   id="namedview61"
   showgrid="false"
   inkscape:zoom="1.509597"
   inkscape:cx="34.07106"
   inkscape:cy="32.814575"
   inkscape:window-x="0"
   inkscape:window-y="0"
   inkscape:window-maximized="0"
   inkscape:current-layer="svg59" />
	<style
   type="text/css"
   id="style2">
	<![CDATA[
		.st1 {fill:none;stroke:none;stroke-linecap:butt;stroke-width:32.2105}
		.st2 {fill:url(#grad0-8);stroke:none;stroke-linecap:butt;stroke-width:32.2105}
		.st3 {fill:url(#grad0-12);stroke:none;stroke-linecap:butt;stroke-width:32.2105}
		.st4 {fill:#0078d4;stroke:none;stroke-linecap:butt;stroke-width:32.2105}
		.st5 {fill:#3c3b41;stroke:none;stroke-linecap:butt;stroke-width:32.2105}
		.st6 {fill:none;fill-rule:evenodd;font-size:12px;overflow:visible;stroke-linecap:square;stroke-miterlimit:3}
	]]>
	</style>

	<defs
   id="Patterns_And_Gradients">
		<linearGradient
   id="grad0-8"
   x1="5.5514715"
   y1="98.283638"
   x2="25.26588"
   y2="98.283638"
   gradientTransform="scale(1.0063968,0.99364382)"
   gradientUnits="userSpaceOnUse">
			<stop
   offset="0"
   stop-color="#dfa500"
   stop-opacity="1"
   id="stop4" />
			<stop
   offset="0.28"
   stop-color="#efb700"
   stop-opacity="1"
   id="stop6" />
			<stop
   offset="0.51"
   stop-color="#ffca00"
   stop-opacity="1"
   id="stop8" />
			<stop
   offset="1"
   stop-color="#e1a800"
   stop-opacity="1"
   id="stop10" />
		</linearGradient>
		<linearGradient
   id="grad0-12"
   x1="0"
   y1="66.417314"
   x2="33.255412"
   y2="66.417314"
   gradientTransform="scale(0.85008721,1.1763499)"
   gradientUnits="userSpaceOnUse">
			<stop
   offset="0.045"
   stop-color="#e2e3e4"
   stop-opacity="1"
   id="stop13" />
			<stop
   offset="1"
   stop-color="#aaaaaa"
   stop-opacity="1"
   id="stop15" />
		</linearGradient>
	</defs>
	<g
   id="g57"
   transform="translate(-32.210183,-32.2143)">
		<title
   id="title19">Page-1</title>
		<g
   id="group16853-1"
   transform="translate(26.6232,-34.0157)">
			<title
   id="title21">Defender for Cloud Coverage.16853</title>
			<g
   id="group16854-2">
				<title
   id="title23">Sheet.16854</title>
				<g
   id="shape16855-3"
   transform="translate(5.66164)">
					<title
   id="title25">Sheet.16855</title>
					<path
   d="m 0,66.23 h 51.03 v 51.02 H 0 Z"
   class="st1"
   id="path27"
   inkscape:connector-curvature="0"
   style="fill:none;stroke:none;stroke-width:32.21049881;stroke-linecap:butt" />
				</g>
				<g
   id="shape16856-5"
   transform="translate(0,-20.2821)">
					<title
   id="title30">Sheet.16856</title>
					<path
   d="m 11.63,98.14 a 2.69048,2.69008 0 0 1 3.18,0.08 l 9.48,7.07 a 2.83507,2.83465 0 0 1 -0.04,4.57 l -9.52,6.87 a 2.55156,2.55118 0 0 1 -3,0.06 C 8.09,114.12 0,106.53 11.63,98.14 Z"
   class="st2"
   id="path32"
   inkscape:connector-curvature="0"
   style="fill:url(#grad0-8);stroke:none;stroke-width:32.21049881;stroke-linecap:butt" />
				</g>
				<g
   id="shape16857-9"
   transform="translate(26.695,-3.40157)">
					<title
   id="title35">Sheet.16857</title>
					<path
   d="M 28.27,116.91 24.14,78.13 h -20 L 0,117.25 h 28.27 z"
   class="st3"
   id="path37"
   inkscape:connector-curvature="0"
   style="fill:url(#grad0-12);stroke:none;stroke-width:32.21049881;stroke-linecap:butt" />
				</g>
				<g
   id="shape16858-13"
   transform="translate(28.517,-38.778)">
					<title
   id="title40">Sheet.16858</title>
					<path
   d="m 18.87,110.11 -2.76,-2.04 -0.32,-0.26 a 5.67014,5.66929 -180 0 0 -7.01,-0.09 l -8.16,6.26 a 1.82295,1.82268 -180 0 0 1.1,3.27 h 20.83 a 1.83996,1.83969 -180 0 0 1.15,-3.27 z"
   class="st4"
   id="path42"
   inkscape:connector-curvature="0"
   style="fill:#0078d4;stroke:none;stroke-width:32.21049881;stroke-linecap:butt" />
				</g>
				<g
   id="shape16859-15"
   transform="translate(37.3776,-26.1921)">
					<title
   id="title45">Sheet.16859</title>
					<path
   d="M 7.25,112.83 A 3.80183,3.80126 -180 0 0 3.46,109.09 3.51549,3.51496 -180 0 0 0,112.83 v 4.42 h 7.24 z"
   class="st5"
   id="path47"
   inkscape:connector-curvature="0"
   style="fill:#3c3b41;stroke:none;stroke-width:32.21049881;stroke-linecap:butt" />
				</g>
				<g
   id="shape16860-17"
   transform="translate(24.9713)">
					<title
   id="title50">Sheet.16860</title>
					<path
   d="M 8.28,110.11 H 3.57 a 3.57219,3.57165 -180 1 0 0,7.14 h 24.58 a 3.57219,3.57165 -180 1 0 0,-7.14 z"
   class="st4"
   id="path52"
   inkscape:connector-curvature="0"
   style="fill:#0078d4;stroke:none;stroke-width:32.21049881;stroke-linecap:butt" />
				</g>
			</g>
		</g>
	</g>
</svg>

<?xml version="1.0" encoding="UTF-8" standalone="no"?>
<!DOCTYPE svg PUBLIC "-//W3C//DTD SVG 1.1//EN" "http://www.w3.org/Graphics/SVG/1.1/DTD/svg11.dtd">
<!-- Generated by Microsoft Visio, SVG Export Defender for Cloud Coverage.svg Page-1 -->
<svg xmlns="http://www.w3.org/2000/svg" xmlns:xlink="http://www.w3.org/1999/xlink" xmlns:ev="http://www.w3.org/2001/xml-events"
		width="1.60454in" height="1.62847in" viewBox="0 0 115.527 117.25" xml:space="preserve" color-interpolation-filters="sRGB"
		class="st6">
	<style type="text/css">
	<![CDATA[
		.st1 {fill:none;stroke:none;stroke-linecap:butt;stroke-width:32.2105}
		.st2 {fill:url(#grad0-8);stroke:none;stroke-linecap:butt;stroke-width:32.2105}
		.st3 {fill:url(#grad0-12);stroke:none;stroke-linecap:butt;stroke-width:32.2105}
		.st4 {fill:#0078d4;stroke:none;stroke-linecap:butt;stroke-width:32.2105}
		.st5 {fill:#3c3b41;stroke:none;stroke-linecap:butt;stroke-width:32.2105}
		.st6 {fill:none;fill-rule:evenodd;font-size:12px;overflow:visible;stroke-linecap:square;stroke-miterlimit:3}
	]]>
	</style>

	<defs id="Patterns_And_Gradients">
		<linearGradient id="grad0-8" x1="0" y1="0" x2="1" y2="0" gradientTransform="rotate(0 0.5 0.5)">
			<stop offset="0" stop-color="#dfa500" stop-opacity="1"/>
			<stop offset="0.28" stop-color="#efb700" stop-opacity="1"/>
			<stop offset="0.51" stop-color="#ffca00" stop-opacity="1"/>
			<stop offset="1" stop-color="#e1a800" stop-opacity="1"/>
		</linearGradient>
		<linearGradient id="grad0-12" x1="0" y1="0" x2="1" y2="0" gradientTransform="rotate(90 0.5 0.5)">
			<stop offset="0.045" stop-color="#e2e3e4" stop-opacity="1"/>
			<stop offset="1" stop-color="#aaaaaa" stop-opacity="1"/>
		</linearGradient>
	</defs>
	<g>
		<title>Page-1</title>
		<g id="group16460-1" transform="translate(26.6232,-34.0157)">
			<title>Defender for Cloud Coverage.16460</title>
			<g id="group16461-2">
				<title>Sheet.16461</title>
				<g id="shape16462-3" transform="translate(5.66164,1.42109E-14)">
					<title>Sheet.16462</title>
					<path d="M0 66.23 L51.03 66.23 L51.03 117.25 L0 117.25 L0 66.23 Z" class="st1"/>
				</g>
				<g id="shape16463-5" transform="translate(2.79776E-13,-20.2821)">
					<title>Sheet.16463</title>
					<path d="M11.63 98.14 A2.69048 2.69008 0 0 1 14.81 98.22 L24.29 105.29 A2.83507 2.83465 0 0 1 24.25 109.86 L14.73
								 116.73 A2.55156 2.55118 0 0 1 11.73 116.79 C8.09 114.12 0 106.53 11.63 98.14 Z" class="st2"/>
				</g>
				<g id="shape16464-9" transform="translate(26.695,-3.40157)">
					<title>Sheet.16464</title>
					<path d="M28.27 116.91 L24.14 78.13 L4.14 78.13 L0 117.25 L28.27 117.25 L28.27 116.91 Z" class="st3"/>
				</g>
				<g id="shape16465-13" transform="translate(28.517,-38.778)">
					<title>Sheet.16465</title>
					<path d="M18.87 110.11 L16.11 108.07 L15.79 107.81 A5.67014 5.66929 -180 0 0 8.78 107.72 L0.62 113.98 A1.82295
								 1.82268 -180 0 0 1.72 117.25 L22.55 117.25 A1.83996 1.83969 -180 0 0 23.7 113.98 L18.87 110.11 Z"
							class="st4"/>
				</g>
				<g id="shape16466-15" transform="translate(37.3776,-26.1921)">
					<title>Sheet.16466</title>
					<path d="M7.25 112.83 A3.80183 3.80126 -180 0 0 3.46 109.09 A3.51549 3.51496 -180 0 0 -0 112.83 L0 117.25 L7.24
								 117.25 L7.25 112.83 Z" class="st5"/>
				</g>
				<g id="shape16467-17" transform="translate(24.9713,1.42109E-14)">
					<title>Sheet.16467</title>
					<path d="M8.28 110.11 L3.57 110.11 A3.57219 3.57165 -180 1 0 3.57 117.25 L28.15 117.25 A3.57219 3.57165 -180
								 1 0 28.15 110.11 L8.28 110.11 Z" class="st4"/>
				</g>
			</g>
		</g>
	</g>
</svg>
